X:1
T:GRAMOPHONE Waltz
T:GRAMOPHONE Waltz 
T:DOGA 
C:DOGA
%%score { 1 | 2 }
L:1/8
Q:1/8=160
M:6/8
K:Eb
V:1 treble nm="Piano" snm="Pno."
V:2 bass 
V:1
!p! z6 | z6 | (e/d/f/d/e/d/ e/d/e/d/e/d/ | e3 G3) | (!4!e3 GB>A | A6) | %6
 (!3!d/c/e/c/d/c/ d/c/d/c/d/c/ | d3 F3) | (!5!d3 FA>G | G6) |!<(! g/e/g/e/g/e/ g/e/g/e/g/e/ | %11
 g3!<)! c3 | (!5!g3 !1!c!4!b>a | !3!a6) |!mf! c'/a/c'/a/c'/a/ c'af | g/e/g/e/g/e/ !5!gec | %16
 (!4!fed def | !5!g3-) g(!1!c>!5!c' | c'/a/c'/a/c'/a/ c'af) | (!4!e'd'c' g!2!e!1!c) | %20
!>(! (!4!fed ded | !5!g6)!>)! | E/D/E/D/E/D/ E/D/E/D/E/D/ | E3 G,3 | E3 G,B,>A, | !5!A,6 | %26
 (!3!D/C/D/C/D/C/ D/C/D/C/D/C/ | D3 !1!F,3) | (!5!D3 !1!F,!3!A,>G, | !2!G,6) | %30
!p! !3!G/F/G/F/G/F/ G/F/G/F/G/F/ | G3 !1!C3 | !5!G3 !1!C!4!B>A | A6 | !5!c/B/c/B/c/B/ cAF | %35
 G/F/G/F/G/F/ !5!GEC | !4!FED DEF | G3- G!1!C!5!c | c/B/c/B/c/B/ cAF | !4!edc GEC | %40
!>(! !4!FED DED | G6!>)! |!pp! !1!f3 !5!c'3 | !2!e3 !4!g3 | !1!d2 d def | %45
 !4!a2 !1!g !3!d'!2!c'!4!e' | !1!f3 !5!c'3 | !2!e3 !4!g3 | !4!f'/e'/f'/e'/d'/c'/ !4!=b/a/g/f/e/d/ | %49
 !1!c2 d efg | !1!f3 !5!c'3 | !2!e3 !4!g3 | !1!d2 d def | !4!a2 !1!g !3!d'!2!c'!4!e' | %54
 !1!f3 !5!c'3 | !2!e3 !4!g3 | z !1!=B,!5!F z !3!D!5!F | z !1!G,!4!E z !1!=B,!2!D | %58
!p! E/D/E/D/E/D/ E/D/E/D/E/D/ | E3 G,3 | !4!E3 G,B,>A, | A,6 | !3!D/C/D/C/D/C/ D/C/D/C/D/C/ | %63
 D3 F,3 | !1!D3 !2!F!3!G>!4!=B |!pp! !1!!5![Ec]3 !1!!5![ec']3 |] %66
V:2
 (C,E,!1!G, !5!G,,E,!1!G,) | (C,E,!1!G, !5!G,,E,!1!G,) | (C,E,!1!G, !5!G,,E,!1!G,) | %3
 (C,E,!1!G, !5!G,,E,!1!G,) | (C,E,!1!G, !5!G,,E,!1!G,) | (!5!F,,B,C !5!C,A,C) | G,,=B,D D,B,D | %7
 (G,=B,D D,B,D) | (G,=B,!1!D =B,,B,!1!D) | (!4!C,E,G, !5!C,E,G,) | ((!4!C,E,G, !5!G,,E,G,)) | %11
 (((!4!C,E,G, !5!G,,E,G,))) | ((((C,=E,G, G,,E,G,)))) | ((!5!F,,B,C !5!C,A,C)) | %14
 ((((!5!F,,B,C !5!C,A,C)))) | (((!4!C,E,G, !5!G,,E,G,))) | (!5!G,,=CD D,B,D) | %17
 (!4!C,E,G, !5!G,,E,G,) | (!5!F,,B,C !5!C,A,C) | (!4!C,E,G, !5!G,,E,G,) | (!5!G,,=CD D,B,D) | %21
 (((!4!C,E,G, !5!G,,E,G,))) | (((((C,E,G, G,,E,G,))))) | ((((((C,E,G, G,,E,G,)))))) | %24
 (((!4!C,E,G, !5!G,,E,G,))) | (((((!5!F,,D,F, !4!A,,C,F,))))) | (((((!5!G,,D,F, !4!=B,,D,F,))))) | %27
 ((((((G,,D,F, =B,,D,F,)))))) | G,,D,F, =B,,D,F, | (!4!C,E,G, !5!G,,E,G,) | C,E,G, G,,E,G, | %31
 C,E,G, G,,E,G, | C,=E,G, G,,E,G, | F,,A,C C,A,C | F,,A,C C,A,C | C,E,G, G,,E,G, | %36
 G,,A,=B, =B,,G,B, | C,E,G, G,,E,G, | F,,A,C C,A,C | C,E,G, G,,E,G, | G,,A,=B, =B,,G,B, | %41
 !1!C,!2!A,,!4!E,, !5!D,,3 |[K:treble] !5!EGc- c3 | FAc- c3 | G,DG =B3 | CEG- G3 | !5!FAc- c3 | %47
 EGc- c3 | G,DG =B3 | CEG- G3 | FAc- c3 | EGc- c3 | G,DG =B3 | CEG- G3 | !5!FAc- c3 | EGc- c3 | %56
[K:bass] !5!G,,3 !1!F,3 | !2!E,3 !3!D,3 | !4!C,E,G, !5!G,,E,G, | C,E,G, G,,E,G, | %60
 !4!C,E,G, !5!G,,E,G, | !5!F,,D,F, !4!A,,C,F, | !5!G,,D,F, !4!=B,,D,F, | G,,D,F, =B,,D,F, | %64
 !5!G,,D,F, !4!=B,,D,F, | !1!C,!2!A,,!4!E,, !5!C,,3 |] %66

